packages/components/src/telekom/icons/weather/rain/selected.svg

<?xml version="1.0" encoding="UTF-8"?>
<svg width="24px" height="24px" viewBox="0 0 24 24" version="1.1" xmlns="http://www.w3.org/2000/svg" xmlns:xlink="http://www.w3.org/1999/xlink">
    <title>icon/weather/rain/selected</title>
    <g id="icon/weather/rain/selected" stroke="none" stroke-width="1" fill="none" fill-rule="evenodd">
        <path d="M11.9585,17.1345 C12.0678333,17.0345 12.2352407,17.1063519 12.252832,17.2394383 L12.252,17.292 L11.653,21.1205 C11.522,21.957 10.7375,22.5295 9.9005,22.3985 C8.67585714,22.2070893 8.18904783,20.7320249 9.0054024,19.8481771 L9.1015,19.7525 L11.9585,17.1345 Z M10.396,11.935 C10.5053333,11.835 10.6727407,11.9068519 10.690332,12.0399383 L10.6895,12.0925 L10.0275,16.3255 C9.8845,17.241 9.0265,17.8665 8.111,17.723 C6.76989655,17.513 6.23749703,15.8962747 7.13530522,14.9304021 L7.237,14.8295 L10.396,11.935 Z M16.5635,10.305 C16.6728333,10.2045556 16.8398457,10.2767531 16.8577003,10.4099218 L16.857,10.4625 L16.0875,15.382 C15.9235,16.43 14.941,17.1465 13.893,16.9825 C12.3542903,16.7415323 11.7450812,14.8822503 12.7831732,13.7769309 L12.8925,13.669 L16.5635,10.305 Z M13.5135,0.5645 C16.7295,0.5645 19.5625,2.5685 20.663,5.584 C22.55,6.578 23.752,8.555 23.752,10.7115 C23.752,13.8292674 21.2910817,16.3789105 18.2222138,16.4958123 L18.002,16.5 L17.074,16.499 C17.177875,16.285625 17.2645937,16.0615625 17.3231875,15.8244922 L17.372,15.583 L18.1415,10.6635 C18.2075,10.234 18.085,9.8015 17.8045,9.475 C17.523,9.1465 17.1135,8.958 16.6815,8.958 C16.3643571,8.958 16.0589694,9.0597551 15.8059548,9.24689213 L15.684,9.3475 L12.014,12.7105 L11.89,12.8305 L11.974,12.2935 C12.041,11.8675 11.919,11.4345 11.639,11.107 C11.357,10.777 10.947,10.588 10.514,10.588 C10.1981429,10.588 9.89330612,10.6893878 9.64042274,10.8757901 L9.5185,10.976 L6.359,13.871 C5.66926667,14.5024 5.32884889,15.3903422 5.40116356,16.2921351 L5.423,16.4855 L5.2235,16.4855 C2.458,16.3385 0.252,14.0345 0.252,11.2155 C0.252,9.3035 1.284,7.5495 2.919,6.6175 C3.0585,4.128 5.1155,2.146 7.6235,2.146 C7.9925,2.146 8.3605,2.191 8.7235,2.2795 C10.0805,1.1705 11.7655,0.5645 13.5135,0.5645 Z" id="Shape" fill="#262626"></path>
    </g>
</svg>

<svg width="24" height="24" xmlns="http://www.w3.org/2000/svg"><path d="M11.959 17.134c.109-.1.276-.028.294.105l-.001.053-.599 3.828A1.534 1.534 0 019.9 22.398c-1.224-.19-1.711-1.666-.895-2.55l.096-.095 2.857-2.619zm-1.563-5.199c.11-.1.277-.028.294.105v.053l-.662 4.233a1.676 1.676 0 01-1.917 1.397c-1.341-.21-1.874-1.827-.976-2.793l.102-.1 3.159-2.895zm6.168-1.63c.109-.1.276-.028.294.105l-.001.053-.77 4.919a1.92 1.92 0 01-2.194 1.6c-1.539-.24-2.148-2.1-1.11-3.205l.11-.108 3.67-3.364zm-3.05-9.74a7.596 7.596 0 017.149 5.019 5.805 5.805 0 013.089 5.127c0 3.118-2.46 5.668-5.53 5.785l-.22.004-.928-.001a3.41 3.41 0 00.25-.675l.048-.241.77-4.92a1.475 1.475 0 00-2.336-1.416l-.122.1-3.67 3.364-.124.12.084-.537a1.478 1.478 0 00-2.334-1.418l-.121.1-3.16 2.895a2.948 2.948 0 00-.958 2.421l.022.193h-.2c-2.765-.146-4.971-2.45-4.971-5.27a5.299 5.299 0 012.667-4.598c.14-2.489 2.196-4.471 4.704-4.471.37 0 .737.045 1.1.134a7.558 7.558 0 014.79-1.715z" fill="#000" fill-rule="evenodd"/></svg>
